X:1859
T:Schottis efter Fridolf Eriksson
R:Schottis
Z:Göran Hed 2010-06-29
O:Sandviken, Gästrikland
M: 2/4
L: 1/16
K:D
|:DFAd F2A2| (3GBd gB e2d2| cAeA f2g2| fedB B2A2|
DFAd F2A2| (3GBd gB e2d2| cAeA fedc| d2d2 d4:|
|:D2DE F2FG| A2Af d2A2|cccB G2G2| BBBA F2F2|
D2DE F2FG| A2Af d2A2| c2a2 gece| d2d2 d4:|
(:musicend:)

(:music:)
